X: 34
T: Belle of the Ball
C: Buz Lloyd
O: Carrboro, North Carolina
%R: waltz
Z: Collected and edited 2014 by John Chambers <jc:trillian.mit.edu>
B: GEMS The Best of the Country Dance and Song Society Diamond Jubilee Music, Dance and Song Contest 1993 p.65
M: 3/4
L: 1/8
K: G
% - - - - - - - - - - - - - - - - - - - - - - - - -
D2 |\
"G"G4 G2 | AB- B2 B2 | "D7"AG- G2 F2 | "G"G2 B2 d2 |\
"C(Em)"e4 e2 | "C(Em)"ed- d2 B2 | "G(Bm)"d6- | d4 ef |
"C"g3 f g2 | e4 ge | "G"dB- B2 "D/F#"A2 | "Em"G4 (3DEF |\
"G/D"G4 BG | "D7"AG- G2 F2 | "G"G6- | G4 :|
Bd |\
"C"g3 f g2 | e4 ge | "G"dB- B2 A2 | G3 B d2 |\
"C"g3 fg2 | "C"ed- d2 B2 | "G"d6- | d4 ef |
"C"g3 f g2 | e4 ge | "G"dB- B2 "D/F#"A2 | "Em"G4 GA |\
"G"BA- A2 B2 | "A7"^cB- B2 c2 | "D"d6 | d4 ||
ef |\
"C"g4 g2 | e4 ge | "G"dB- B2 "D/F#"A2 | "Em"G4 GA |\
"G"BA- A2 G2 | "G7"GB- B2 d2 | "C"e6 | e4 f2 |
"C"g4 g2 | e3g e2 | "G"dB- B2 "D/F#"A2 | "Em"G4 DE |\
"G/D"G4 BG | "D7".A2 .G2 .F2 | "G"G6- | G2 |]
% - - - - - - - - - - - - - - - - - - - - - - - - -

